X: 12825
T: Felix In Paris
R: hornpipe
M: 4/4
K: Gmajor
|:(3CB,A,|G,B,DG B2Ac|Bdef gdBG|EGcB cBAG|FdAF D2 (3CB,A,|
G,B,DG BAGF|ECEG c2cd|fgag fdcA|(3Bcd cA G2:|
|:Bc|dBge dBGB|cAaf ecAG|(3FED AF dAFD|GABG D2 (3CB,A,|
G,B,DG BAGF|ECEG c2cd|fgag fdcA|(3Bcd cA G2:|

